X:1
T: The Bundle of Straw
C:
R:Reel
Q: 232
K:Em
M:4/4
L:1/8
|:GF GA BE ((3EEE) |BE dE BE ((3EEE) |GF GA BA ((3Bcd) |((3efg) ((3fe^d) e2 e2|
GF GA BE ((3EEE) |BE dE BE ((3EEE) |GF GA BA ((3Bcd) |((3efg) ((3fe^d) e2 e2|
ga fg ed Bd|df ed Bd ef|((3gag) ((3fgf) ed Bd|((3efg) ((3fe^d)e2 ef|
ga fg ed Bd|df ed Bd ef|((3gab) ((3agf) ((3gfe) ((3fed) |((3efg) ((3fe^d) e2 e2:|
